file/arthur-ashe-stadium.svg

<svg clip-rule="evenodd" fill-rule="evenodd" stroke-linejoin="round" stroke-miterlimit="1.41421" viewBox="0 0 560 400" xmlns="http://www.w3.org/2000/svg"><g fill="#52ad42" transform="matrix(1.51515 0 0 1.51515 -59.3939 -42.7273)"><g fill-rule="nonzero"><g><path d="m342.8 145.1-3 7.9c-.4-.2-27.1-11.8-68.6-17.8l3.1-8.1c14 2.1 26 4.7 35.4 7.2 19 4.9 30.8 9.7 33.1 10.8z"/><path d="m105.2 145.1 3 7.9c.4-.2 27.1-11.8 68.6-17.8l-3.1-8.1c-14 2.1-26 4.7-35.4 7.2-19 4.9-30.8 9.7-33.1 10.8z"/><path d="m224 112.9c-20.1 0-38.4 1.8-54.1 4.3l3.1 8.1c15.1-2.3 32.3-4 51-4s35.9 1.6 51 4l3.1-8.1c-15.7-2.4-34-4.3-54.1-4.3z"/></g><g><path d="m280.4 172.1c-2.1 0-4.1-1-6.1-2.8l-2.9 3.9c2.5 2.4 5.4 3.7 9.1 3.7 4.8 0 7.8-2.4 7.8-6.9 0-7.2-10.2-5.6-10.2-8.6 0-.7.7-1.6 2.1-1.6s3.1.6 5 2.1l2.8-4.1c-2.7-2-4.8-3-8.1-3-4.5 0-7.5 2.4-7.5 6.9 0 7.2 10.1 5.6 10.1 8.6 0 1-.7 1.8-2.1 1.8z"/><path d="m318.6 171.6v-3.4h8.8v-4.6h-8.8v-3.4h9.8v-4.9h-15.6v21.3h15.7v-5z"/><path d="m303.1 155.3v8h-6.1v-8h-5.7v21.3h5.7v-8.2h6.1v8.2h5.7v-21.3z"/><path d="m264.8 176.6h6.2l-8.1-21.4h-5.4l-8.1 21.4h6.1l1.3-3.9h6.9zm-6.6-8.5 1.9-5.8 1.9 5.8z"/></g><g><path d="m175.2 155.3h-16.9v5h5.6v16.3h5.7v-16.3h5.6z"/><path d="m189.4 155.3v8h-6.1v-8h-5.7v21.3h5.7v-8.2h6.1v8.2h5.7v-21.3z"/><path d="m151.1 176.6h6.7l-4.3-7.6c1.8-1 3.5-2.9 3.5-6.4 0-7.1-7.1-7.2-8.1-7.2h-9v21.3h5.7v-6.7h1.9zm-5.5-16.3h2.8c1.3 0 2.8.4 2.8 2.6 0 1.6-1 2.6-2.8 2.6h-2.8z"/><path d="m231.8 176.6h6.7l-4.3-7.6c1.8-1 3.5-2.9 3.5-6.4 0-7.1-7.1-7.2-8.1-7.2h-9v21.3h5.7v-6.7h1.9zm-5.5-16.3h2.8c1.3 0 2.8.4 2.8 2.6 0 1.6-1 2.6-2.8 2.6h-2.8z"/><path d="m131.8 176.6h6.2l-8.1-21.4h-5.4l-8.1 21.4h6.1l1.3-3.9h6.9zm-6.7-8.5 1.9-5.8 1.9 5.8z"/><path d="m211 155.3v13c0 2.1-1.3 3.5-3.1 3.5s-3.1-1.4-3.1-3.6v-12.9h-5.8v12.8c0 5.7 3.3 8.8 8.9 8.8 5.7 0 9-3.2 9-8.9v-12.7z"/></g></g><g><path d="m166.9 202.7c-2.1 0-4.1-1-6.1-2.8l-2.9 3.9c2.5 2.4 5.4 3.7 9.1 3.7 4.8 0 7.8-2.4 7.8-6.9 0-7.2-10.2-5.6-10.2-8.6 0-.7.7-1.6 2.1-1.6s3.1.6 5 2.1l2.8-4.1c-2.7-2-4.8-3-8.1-3-4.5 0-7.5 2.4-7.5 6.9 0 7.2 10.1 5.6 10.1 8.6 0 1-.8 1.8-2.1 1.8z" fill-rule="nonzero"/><path d="m236.7 185.9h5.7v21.3h-5.7z"/><g fill-rule="nonzero"><path d="m222.8 185.9h-7.5v21.3h7.5c6.4 0 10.8-3.7 10.8-10.8 0-6.8-4.2-10.5-10.8-10.5zm0 16.1h-1.7v-11h1.7c3.6 0 4.9 2.4 4.9 5.5 0 3.2-1.3 5.5-4.9 5.5z"/><path d="m192.9 185.9h-16.9v5h5.5v16.2h5.8v-16.2h5.6z"/><path d="m282.3 185.9-4.3 7.7-4.3-7.7h-5.9v21.2h5.7v-12l4.2 7.3h.5l4.3-7.4v12.1h5.7v-21.2z"/><path d="m207.3 207.1h6.2l-8.1-21.4h-5.4l-8.1 21.4h6.1l1.3-3.9h6.9zm-6.7-8.5 1.9-5.8 1.9 5.8z"/><path d="m258.2 185.9v13c0 2.1-1.3 3.5-3.1 3.5s-3.1-1.4-3.1-3.6v-12.9h-5.8v12.8c0 5.7 3.3 8.8 8.9 8.8 5.7 0 9-3.2 9-8.9v-12.7z"/></g></g></g></svg>

<?xml version="1.0" encoding="UTF-8" standalone="no"?>
<!DOCTYPE svg PUBLIC "-//W3C//DTD SVG 1.1//EN" "http://www.w3.org/Graphics/SVG/1.1/DTD/svg11.dtd">
<svg width="100%" height="100%" viewBox="0 0 560 400" version="1.1" xmlns="http://www.w3.org/2000/svg" xmlns:xlink="http://www.w3.org/1999/xlink" xml:space="preserve" xmlns:serif="http://www.serif.com/" style="fill-rule:evenodd;clip-rule:evenodd;stroke-linejoin:round;stroke-miterlimit:1.41421;">
    <g transform="matrix(1.51515,0,0,1.51515,-59.3939,-42.7273)">
        <g>
            <path d="M342.8,145.1L339.8,153C339.4,152.8 312.7,141.2 271.2,135.2L274.3,127.1C288.3,129.2 300.3,131.8 309.7,134.3C328.7,139.2 340.5,144 342.8,145.1Z" style="fill:rgb(82,173,66);fill-rule:nonzero;"/>
            <path d="M105.2,145.1L108.2,153C108.6,152.8 135.3,141.2 176.8,135.2L173.7,127.1C159.7,129.2 147.7,131.8 138.3,134.3C119.3,139.2 107.5,144 105.2,145.1Z" style="fill:rgb(82,173,66);fill-rule:nonzero;"/>
            <path d="M224,112.9C203.9,112.9 185.6,114.7 169.9,117.2L173,125.3C188.1,123 205.3,121.3 224,121.3C242.7,121.3 259.9,122.9 275,125.3L278.1,117.2C262.4,114.8 244.1,112.9 224,112.9Z" style="fill:rgb(82,173,66);fill-rule:nonzero;"/>
        </g>
        <g>
            <g>
                <path d="M280.4,172.1C278.3,172.1 276.3,171.1 274.3,169.3L271.4,173.2C273.9,175.6 276.8,176.9 280.5,176.9C285.3,176.9 288.3,174.5 288.3,170C288.3,162.8 278.1,164.4 278.1,161.4C278.1,160.7 278.8,159.8 280.2,159.8C281.6,159.8 283.3,160.4 285.2,161.9L288,157.8C285.3,155.8 283.2,154.8 279.9,154.8C275.4,154.8 272.4,157.2 272.4,161.7C272.4,168.9 282.5,167.3 282.5,170.3C282.5,171.3 281.8,172.1 280.4,172.1Z" style="fill:rgb(82,173,66);fill-rule:nonzero;"/>
                <path d="M318.6,171.6L318.6,168.2L327.4,168.2L327.4,163.6L318.6,163.6L318.6,160.2L328.4,160.2L328.4,155.3L312.8,155.3L312.8,176.6L328.5,176.6L328.5,171.6L318.6,171.6Z" style="fill:rgb(82,173,66);fill-rule:nonzero;"/>
                <path d="M303.1,155.3L303.1,163.3L297,163.3L297,155.3L291.3,155.3L291.3,176.6L297,176.6L297,168.4L303.1,168.4L303.1,176.6L308.8,176.6L308.8,155.3L303.1,155.3Z" style="fill:rgb(82,173,66);fill-rule:nonzero;"/>
                <path d="M264.8,176.6L271,176.6L262.9,155.2L257.5,155.2L249.4,176.6L255.5,176.6L256.8,172.7L263.7,172.7L264.8,176.6ZM258.2,168.1L260.1,162.3L262,168.1L258.2,168.1Z" style="fill:rgb(82,173,66);fill-rule:nonzero;"/>
            </g>
            <g>
                <path d="M175.2,155.3L158.3,155.3L158.3,160.3L163.9,160.3L163.9,176.6L169.6,176.6L169.6,160.3L175.2,160.3L175.2,155.3Z" style="fill:rgb(82,173,66);fill-rule:nonzero;"/>
                <path d="M189.4,155.3L189.4,163.3L183.3,163.3L183.3,155.3L177.6,155.3L177.6,176.6L183.3,176.6L183.3,168.4L189.4,168.4L189.4,176.6L195.1,176.6L195.1,155.3L189.4,155.3Z" style="fill:rgb(82,173,66);fill-rule:nonzero;"/>
                <path d="M151.1,176.6L157.8,176.6L153.5,169C155.3,168 157,166.1 157,162.6C157,155.5 149.9,155.4 148.9,155.4L139.9,155.4L139.9,176.7L145.6,176.7L145.6,170L147.5,170L151.1,176.6ZM145.6,160.3L148.4,160.3C149.7,160.3 151.2,160.7 151.2,162.9C151.2,164.5 150.2,165.5 148.4,165.5L145.6,165.5L145.6,160.3Z" style="fill:rgb(82,173,66);fill-rule:nonzero;"/>
                <path d="M231.8,176.6L238.5,176.6L234.2,169C236,168 237.7,166.1 237.7,162.6C237.7,155.5 230.6,155.4 229.6,155.4L220.6,155.4L220.6,176.7L226.3,176.7L226.3,170L228.2,170L231.8,176.6ZM226.3,160.3L229.1,160.3C230.4,160.3 231.9,160.7 231.9,162.9C231.9,164.5 230.9,165.5 229.1,165.5L226.3,165.5L226.3,160.3Z" style="fill:rgb(82,173,66);fill-rule:nonzero;"/>
                <path d="M131.8,176.6L138,176.6L129.9,155.2L124.5,155.2L116.4,176.6L122.5,176.6L123.8,172.7L130.7,172.7L131.8,176.6ZM125.1,168.1L127,162.3L128.9,168.1L125.1,168.1Z" style="fill:rgb(82,173,66);fill-rule:nonzero;"/>
                <path d="M211,155.3L211,168.3C211,170.4 209.7,171.8 207.9,171.8C206.1,171.8 204.8,170.4 204.8,168.2L204.8,155.3L199,155.3L199,168.1C199,173.8 202.3,176.9 207.9,176.9C213.6,176.9 216.9,173.7 216.9,168L216.9,155.3L211,155.3Z" style="fill:rgb(82,173,66);fill-rule:nonzero;"/>
            </g>
            <g>
                <path d="M166.9,202.7C164.8,202.7 162.8,201.7 160.8,199.9L157.9,203.8C160.4,206.2 163.3,207.5 167,207.5C171.8,207.5 174.8,205.1 174.8,200.6C174.8,193.4 164.6,195 164.6,192C164.6,191.3 165.3,190.4 166.7,190.4C168.1,190.4 169.8,191 171.7,192.5L174.5,188.4C171.8,186.4 169.7,185.4 166.4,185.4C161.9,185.4 158.9,187.8 158.9,192.3C158.9,199.5 169,197.9 169,200.9C169,201.9 168.2,202.7 166.9,202.7Z" style="fill:rgb(82,173,66);fill-rule:nonzero;"/>
                <rect x="236.7" y="185.9" width="5.7" height="21.3" style="fill:rgb(82,173,66);"/>
                <path d="M222.8,185.9L215.3,185.9L215.3,207.2L222.8,207.2C229.2,207.2 233.6,203.5 233.6,196.4C233.6,189.6 229.4,185.9 222.8,185.9ZM222.8,202L221.1,202L221.1,191L222.8,191C226.4,191 227.7,193.4 227.7,196.5C227.7,199.7 226.4,202 222.8,202Z" style="fill:rgb(82,173,66);fill-rule:nonzero;"/>
                <path d="M192.9,185.9L176,185.9L176,190.9L181.5,190.9L181.5,207.1L187.3,207.1L187.3,190.9L192.9,190.9L192.9,185.9Z" style="fill:rgb(82,173,66);fill-rule:nonzero;"/>
                <path d="M282.3,185.9L278,193.6L273.7,185.9L267.8,185.9L267.8,207.1L273.5,207.1L273.5,195.1L277.7,202.4L278.2,202.4L282.5,195L282.5,207.1L288.2,207.1L288.2,185.9L282.3,185.9Z" style="fill:rgb(82,173,66);fill-rule:nonzero;"/>
                <path d="M207.3,207.1L213.5,207.1L205.4,185.7L200,185.7L191.9,207.1L198,207.1L199.3,203.2L206.2,203.2L207.3,207.1ZM200.6,198.6L202.5,192.8L204.4,198.6L200.6,198.6Z" style="fill:rgb(82,173,66);fill-rule:nonzero;"/>
                <path d="M258.2,185.9L258.2,198.9C258.2,201 256.9,202.4 255.1,202.4C253.3,202.4 252,201 252,198.8L252,185.9L246.2,185.9L246.2,198.7C246.2,204.4 249.5,207.5 255.1,207.5C260.8,207.5 264.1,204.3 264.1,198.6L264.1,185.9L258.2,185.9Z" style="fill:rgb(82,173,66);fill-rule:nonzero;"/>
            </g>
        </g>
    </g>
</svg>
